material/.icons/material/layers-minus.svg

<svg xmlns="http://www.w3.org/2000/svg" viewBox="0 0 24 24"><path d="M22 17v2h-8v-2h8m-11-1L2 9l9-7 9 7-9 7m0 2.54l1-.79V18c0 .71.12 1.39.35 2L11 21.07l-9-7 1.62-1.26L11 18.54z"/></svg>

<?xml version="1.0" encoding="UTF-8"?><!DOCTYPE svg PUBLIC "-//W3C//DTD SVG 1.1//EN" "http://www.w3.org/Graphics/SVG/1.1/DTD/svg11.dtd"><svg xmlns="http://www.w3.org/2000/svg" xmlns:xlink="http://www.w3.org/1999/xlink" version="1.1" id="mdi-layers-minus" width="24" height="24" viewBox="0 0 24 24"><path d="M22,17V19H14V17H22M11,16L2,9L11,2L20,9L11,16M11,18.54L12,17.75V18C12,18.71 12.12,19.39 12.35,20L11,21.07L2,14.07L3.62,12.81L11,18.54Z" /></svg>
